X: 52
P: No. LII.
M: 6/8
L: 1/8
K: G
V: 1
|:\
def g2e | f2d e2B | def g2e |
f2d e2e |\
def g>fe | f>ed efg | GAG GAB |\
ded dBG | BAB GED | EFE E2D |\
V: 2 clef=bass middle=d
z |\
g3 g3 | g3 g3 | g3 g3 | g3 g3 | g3 g3 | g3 g3 | g3 g3 |
g3 g3 :|\
|:\
g3 g3 | g3 g3 | g3 g3 | g3 g3 | g3 g3 | g3 g3 | g3 g3 |
g3 g3 | g3 g3 | g3 g3 | g3 g3 | g3 g3 | g3 g3 | g3 g3 :|

